src/assets/tick.svg

<svg width="38" height="38" viewBox="0 0 38 38" fill="none" xmlns="http://www.w3.org/2000/svg">
<path fill-rule="evenodd" clip-rule="evenodd" d="M24.4118 8.93456C24.1935 8.58565 23.8717 8.31351 23.4915 8.15601C23.1112 7.9985 22.6913 7.96348 22.2901 8.05581L19.4433 8.70973C19.1516 8.77678 18.8484 8.77678 18.5566 8.70973L15.7098 8.05581C15.3087 7.96348 14.8888 7.9985 14.5085 8.15601C14.1282 8.31351 13.8065 8.58565 13.5881 8.93456L12.0365 11.4109C11.8781 11.6642 11.6644 11.878 11.4111 12.0379L8.93473 13.5896C8.58643 13.8077 8.31468 14.1289 8.15721 14.5085C7.99974 14.8882 7.96436 15.3074 8.05598 15.7081L8.7099 18.5581C8.77671 18.8493 8.77671 19.1519 8.7099 19.4431L8.05598 22.2916C7.96401 22.6924 7.99921 23.112 8.15669 23.492C8.31418 23.8719 8.58613 24.1934 8.93473 24.4116L11.4111 25.9633C11.6644 26.1216 11.8781 26.3354 12.0381 26.5887L13.5897 29.0651C14.0362 29.7791 14.8881 30.1322 15.7098 29.9438L18.5566 29.2899C18.8484 29.2228 19.1516 29.2228 19.4433 29.2899L22.2917 29.9438C22.6926 30.0358 23.1122 30.0006 23.4921 29.8431C23.8721 29.6856 24.1936 29.4137 24.4118 29.0651L25.9635 26.5887C26.1218 26.3354 26.3356 26.1216 26.5889 25.9633L29.0668 24.4116C29.4154 24.1931 29.6873 23.8713 29.8445 23.491C30.0017 23.1107 30.0365 22.6909 29.944 22.29L29.2916 19.4431C29.2246 19.1514 29.2246 18.8482 29.2916 18.5565L29.9456 15.7081C30.0377 15.3073 30.0027 14.8879 29.8455 14.5079C29.6883 14.128 29.4167 13.8065 29.0684 13.588L26.5905 12.0363C26.3375 11.8777 26.1237 11.6639 25.9651 11.4109L24.4118 8.93456ZM23.6154 15.469C23.7133 15.2889 23.7376 15.0779 23.6831 14.8803C23.6286 14.6826 23.4995 14.5139 23.3231 14.4095C23.1467 14.3051 22.9367 14.2732 22.7373 14.3205C22.5378 14.3678 22.3645 14.4906 22.2537 14.6631L18.1133 21.6709L15.6132 19.2769C15.5391 19.2007 15.4503 19.1403 15.3523 19.0992C15.2543 19.0581 15.1489 19.0371 15.0426 19.0376C14.9363 19.038 14.8312 19.0599 14.7335 19.1019C14.6359 19.1439 14.5477 19.2051 14.4742 19.2819C14.4007 19.3587 14.3434 19.4495 14.3057 19.5489C14.2681 19.6483 14.2508 19.7543 14.255 19.8605C14.2592 19.9667 14.2848 20.071 14.3302 20.1672C14.3755 20.2633 14.4398 20.3493 14.5191 20.4201L17.7396 23.506C17.8258 23.5884 17.9295 23.6503 18.043 23.687C18.1565 23.7237 18.2768 23.7343 18.3949 23.718C18.513 23.7017 18.626 23.659 18.7253 23.5929C18.8246 23.5269 18.9076 23.4392 18.9683 23.3366L23.6154 15.469Z" fill="#006E8C"/>
</svg>

<svg xmlns="http://www.w3.org/2000/svg" width="38" height="38" fill="none" viewBox="0 0 38 38"><path fill="#006e8c" fill-rule="evenodd" d="M24.412 8.935a1.98 1.98 0 0 0-2.122-.88l-2.847.655a2 2 0 0 1-.886 0l-2.847-.654a1.98 1.98 0 0 0-2.122.879l-1.551 2.476a2 2 0 0 1-.626.627L8.935 13.59a1.98 1.98 0 0 0-.879 2.118l.654 2.85c.067.291.067.594 0 .885l-.654 2.849a1.98 1.98 0 0 0 .879 2.12l2.476 1.551c.253.159.467.372.627.626l1.552 2.476a1.98 1.98 0 0 0 2.12.879l2.847-.654c.291-.067.595-.067.886 0l2.849.654a1.98 1.98 0 0 0 2.12-.879l1.552-2.476c.158-.254.372-.467.625-.626l2.478-1.551a1.98 1.98 0 0 0 .877-2.122l-.652-2.847a2 2 0 0 1 0-.887l.654-2.848a1.98 1.98 0 0 0-.878-2.12l-2.478-1.552a2 2 0 0 1-.625-.625zm-.797 6.534a.792.792 0 0 0-1.361-.806l-4.14 7.008-2.5-2.394a.79.79 0 0 0-1.359.583.8.8 0 0 0 .264.56l3.22 3.086a.792.792 0 0 0 1.23-.17z" clip-rule="evenodd"/></svg>
